!!!OTL: DER KOENIG ZOG WOHL UEBER DEN RHEIN
!!!ARE: Europa, Mitteleuropa, Deutschland, Niederrhein (?)
!!!SCT: B0131
!!!YEM: Copyright 1995, estate of Helmut Schaffrath.
**kern
*ICvox
*Ivox
*M6/8
*k[b-e-]
*g:
{8d
=1
4g
8b-
4a
8a
=2
8g
8f#
8g
4a}
{8a
=3
8b-
16cc
16dd
16cc
16b-
4a}
{16a
16dd
=4
8dd
8cc
8b-
8cc
8b-
8a
=5
8b-
16cc
16dd
16cc
16b-
4a}
{8a
=6
8.g
16f#
16g
16e-
4d}
{8g
=7
8f#
8g
8b-
4a}
{24b-
24cc
24dd
=8
4cc
8cc
4dd
8cc
=9
4b-
8a
4g}
==
!!!AGN: Ballade, Romanze
!!!ONB: ESAC (Essen Associative Code) Database: BOEHME
!!!AMT: compound duple
!!!AIN: vox
!!!EED: Helmut Schaffrath
!!!EEV: 1.0
*-
